X:480
T:Vals # 480
T: efter Melker Andersson
M:3/4
L:1/8
K: G
Q: 180
G,G,| G,2B,2D2| G2B2d2| g2f2A2| c4 ee| (3efe d2G2| B4 dd| (3ded c2 D2| F4A2|
(3cdc B2D2| G4G,G,| G,2B,2D2| G2B2d2| g2f2A2| c4 ee| (3efe d2G2| B4 dd|  (3ded c2 D2|
F4A2| A3G BA| G4 :: d| gg gg gg| (3gag f2 e2| (3efe d2B2| G4dd| (3ded c2 A2|
F4ee| e2d2B2| G4d2| gg gg gg| (3gag f2 e2| (3efe d2B2| G4dd| (3ded c2 A2|
F4 AA| A3G BA| G4 :|

